!!!COM: Beethoven
!!!OTL: Acht Variationen uber "Une fievre brulante" aus "Richard Coeur de Lion" von A.E.M. Gretry
!!!Variation: Variation 1 a
**function	**harm	**kern	**kern
*	*	*clefG2	*clefG2
*	*	*k[]	*k[]
*M3/4	*M3/4	*M3/4	*M3/4
*C:	*C:	*C:	*C:
4T	C:maj	4r	4ee
=33	=33	=33	=33
*	*	*^	*
2.T	C:maj	2g	2.c	(8dd#L
.	.	.	.	8eeJ
.	.	.	.	8ffL
.	.	.	.	8eeJ
.	.	4e	.	8ddL
.	.	.	.	8ccJ
=34	=34	=34	=34	=34
2T	F:maj/5	2a	2.c	8ggL
.	.	.	.	8ffJ
.	.	.	.	8eeL
.	.	.	.	8ffJ
4T	C:maj	4g	.	8dd#L
.	.	.	.	8eeJ
=35	=35	=35	=35	=35
2.T	C:maj	2g	[2.c	8ffL
.	.	.	.	8eeJ
.	.	.	.	8dd#L
.	.	.	.	8eeJ
.	.	4f	.	8cc#L
.	.	.	.	8ddJ
=36	=36	=36	=36	=36
2.T	C:maj	4e	4c]	8bL
.	.	.	.	8ccJ
*	*	*v	*v	*
.	.	4r	8ddL
.	.	.	8ccJ
.	.	4r	8bL
.	.	.	8ccJ)
=37	=37	=37	=37
2T	B:dim	4r	(8cc#L
.	.	.	8ddJ
.	.	(4b	8eeL
.	.	.	8ddJ
4T	C:maj	4cc	8ffL
.	.	.	8eeJ
=38	=38	=38	=38
2P	F:maj/3	4a	8ggL
.	.	.	8ffJ
.	.	4e	8aaL
.	.	.	8gg#J
4P	F:maj	4f)	8bbL
.	.	.	8aaJ
=39	=39	=39	=39
*	*	*clefF4	*
*	*	*^	*
2.P	D:min/b3	(4A	2.F	8dddL
.	.	.	.	8ccc#J
.	.	4d	.	8eeeL
.	.	.	.	8dddJ
.	.	4f)	.	8fffL
.	.	.	.	8dddJ)
=40	=40	=40	=40	=40
4D	C:maj/5	(4e	2G	(4ccc
4D	G:maj	4d)	.	4bb)
*	*	*v	*v	*
*-	*-	*-	*-
!!!EMD: Edited in humdrumR 0.7.0.3 on 2024-01-19
